X: 31
T: Miss Mary Stewart's Strathspey
R: strathspey
B: William Shepherd "1st Collection" 1793 p.3 #1
F: http://imslp.org/wiki/File:PMLP73094-Shepherd_Collections_HMT.pdf
C: William Shepherd (17??-1812)
Z: 2012 John Chambers <jc:trillian.mit.edu>
M: C|
L: 1/8
K: D
B | A>FD>F BGAF | =cGA=F G/F/E/D/ =CE | AFDF AdFd | B/c/d e/f/g fdd :|
g | fdad bdad | ge=cg ec e/f/g/e/ | fdad bdad | ge f/g/a/g/ fdd ||
g | fdad bdad | ge=cg ec e/f/g/e/ | afdA Bc/d/ AF | GB e/f/g fdd |]
